X: 542
T: Duchess of Bedford's Strathspey
%R: strathspey
B: "Twenty Four Country Dances for the Year 1805", Tho. Preston, ed. p.231 #2
F: http://folkopedia.efdss.org/images/archive/0/02/20121211105513%21Preston_24_1805.PDF
Z: 2014 John Chambers <jc:trillian.mit.edu>
M: C|
L: 1/8
K: F
f |\
Tc>FA>F CFA,d | Tc<FA>F G>AB>d |\
Tc<Fc>A B>cd>e | f>d (Tc/d/).c/.B/ AFF :|
c |\
f>ac>a f>ga>f | g<cTg>e g<cTg>e |\
f>ac>a f>ga>g | f>d (c/d/).c/.B/ AF-Fc |
f>ac>a f>ga>f | g>cTg>e g>cTg>e |\
f>ag>b a>fge | f>Td (c/d/).c/.B/ AFF |]
%%begintext align
%% Change sides, back again. lead down the middle
%% up again allemande. swing corners and lead
%% outsides.
%%endtext

%%sep 1 1 500
%%sep 1 1 500
